icons/carbohydrates_fill.svg

<svg width="48" height="48" viewBox="0 0 48 48" fill="none" xmlns="http://www.w3.org/2000/svg">
<path fill-rule="evenodd" clip-rule="evenodd" d="M35 10C35.5523 10 36 10.4477 36 11V25C36 25.5523 35.5523 26 35 26C34.4477 26 34 25.5523 34 25V11C34 10.4477 34.4477 10 35 10Z" fill="black"/>
<path fill-rule="evenodd" clip-rule="evenodd" d="M43 10C43.5523 10 44 10.4477 44 11V25C44 25.5523 43.5523 26 43 26C42.4477 26 42 25.5523 42 25V11C42 10.4477 42.4477 10 43 10Z" fill="black"/>
<path fill-rule="evenodd" clip-rule="evenodd" d="M39 10C39.5523 10 40 10.4477 40 11V25C40 25.5523 39.5523 26 39 26C38.4477 26 38 25.5523 38 25V11C38 10.4477 38.4477 10 39 10Z" fill="black"/>
<path fill-rule="evenodd" clip-rule="evenodd" d="M39 22C39.5523 22 40 22.4477 40 23V37C40 37.5523 39.5523 38 39 38C38.4477 38 38 37.5523 38 37V23C38 22.4477 38.4477 22 39 22Z" fill="black"/>
<path fill-rule="evenodd" clip-rule="evenodd" d="M34 11V16.5279C34 18.043 34.856 19.428 36.2111 20.1056L40 22V16.4721C40 14.957 39.144 13.572 37.7889 12.8944L34 11ZM36 14.2361V16.5279C36 17.2854 36.428 17.9779 37.1056 18.3167L38 18.7639V16.4721C38 15.7146 37.572 15.0221 36.8944 14.6833L36 14.2361Z" fill="black"/>
<path fill-rule="evenodd" clip-rule="evenodd" d="M34 17V22.5279C34 24.043 34.856 25.428 36.2111 26.1056L40 28V22.4721C40 20.957 39.144 19.572 37.7889 18.8944L34 17ZM36 20.2361V22.5279C36 23.2854 36.428 23.9779 37.1056 24.3167L38 24.7639V22.4721C38 21.7146 37.572 21.0221 36.8944 20.6833L36 20.2361Z" fill="black"/>
<path fill-rule="evenodd" clip-rule="evenodd" d="M34 23V28.5279C34 30.043 34.856 31.428 36.2111 32.1056L40 34V28.4721C40 26.957 39.144 25.572 37.7889 24.8944L34 23ZM36 26.2361V28.5279C36 29.2854 36.428 29.9779 37.1056 30.3167L38 30.7639V28.4721C38 27.7146 37.572 27.0221 36.8944 26.6833L36 26.2361Z" fill="black"/>
<path fill-rule="evenodd" clip-rule="evenodd" d="M44 11V16.5279C44 18.043 43.144 19.428 41.7889 20.1056L38 22V16.4721C38 14.957 38.856 13.572 40.2111 12.8944L44 11ZM42 14.2361V16.5279C42 17.2854 41.572 17.9779 40.8944 18.3167L40 18.7639V16.4721C40 15.7146 40.428 15.0221 41.1056 14.6833L42 14.2361Z" fill="black"/>
<path fill-rule="evenodd" clip-rule="evenodd" d="M44 17V22.5279C44 24.043 43.144 25.428 41.7889 26.1056L38 28V22.4721C38 20.957 38.856 19.572 40.2111 18.8944L44 17ZM42 20.2361V22.5279C42 23.2854 41.572 23.9779 40.8944 24.3167L40 24.7639V22.4721C40 21.7146 40.428 21.0221 41.1056 20.6833L42 20.2361Z" fill="black"/>
<path fill-rule="evenodd" clip-rule="evenodd" d="M44 23V28.5279C44 30.043 43.144 31.428 41.7889 32.1056L38 34V28.4721C38 26.957 38.856 25.572 40.2111 24.8944L44 23ZM42 26.2361V28.5279C42 29.2854 41.572 29.9779 40.8944 30.3167L40 30.7639V28.4721C40 27.7146 40.428 27.0221 41.1056 26.6833L42 26.2361Z" fill="black"/>
<path fill-rule="evenodd" clip-rule="evenodd" d="M24.2728 20.381C23.4742 20.1719 22.6424 20.045 21.7868 20.0099C20.7908 20.1031 19.8846 20.8473 19.1608 22.0715C18.3958 23.3653 18 24.9408 18 26C18 26.5523 17.5523 27 17 27C16.4477 27 16 26.5523 16 26C16 24.5592 16.5042 22.6347 17.4392 21.0535C17.6526 20.6926 17.8975 20.3356 18.1741 20H16C14.9202 20 13.936 20.7605 13.1608 22.0715C12.3958 23.3653 12 24.9408 12 26C12 26.5523 11.5523 27 11 27C10.4477 27 10 26.5523 10 26C10 24.5592 10.5042 22.6347 11.4392 21.0535C11.505 20.9423 11.5737 20.8315 11.6454 20.7216C7.18209 22.3706 4 26.6637 4 31.7C4 35.1794 6.82061 38 10.3 38H26.7C30.1794 38 33 35.1794 33 31.7C33 27.0442 30.2806 23.0236 26.3435 21.1398C25.7128 21.6538 25.1626 22.4462 24.7457 23.3768C24.2469 24.4899 24 25.6656 24 26.5C24 27.0523 23.5523 27.5 23 27.5C22.4477 27.5 22 27.0523 22 26.5C22 25.3409 22.3254 23.8872 22.9205 22.559C23.2603 21.8006 23.7084 21.038 24.2728 20.381Z" fill="black"/>
<path fill-rule="evenodd" clip-rule="evenodd" d="M25.6345 21.8738C25.3135 22.2837 25.0327 22.7587 24.799 23.2601C24.7809 23.2989 24.7631 23.3377 24.7457 23.3768C24.7379 23.3941 24.7301 23.4116 24.7225 23.429C24.2392 24.5266 24 25.6787 24 26.5C24 27.0523 23.5523 27.5 23 27.5C22.4477 27.5 22 27.0523 22 26.5C22 25.3409 22.3254 23.8872 22.9205 22.559C22.979 22.4284 23.0407 22.2977 23.1057 22.1674C23.3865 21.6044 23.7281 21.0495 24.1337 20.548C24.1792 20.4916 24.2256 20.436 24.2728 20.381C23.5532 20.1925 22.8066 20.0709 22.04 20.023C21.9559 20.0178 21.8714 20.0134 21.7868 20.0099C21.0714 20.0769 20.4023 20.4797 19.8139 21.1549C19.7811 21.1926 19.7485 21.2312 19.7161 21.2706C19.5227 21.5062 19.3384 21.7717 19.1647 22.0649C19.1634 22.0671 19.1621 22.0693 19.1608 22.0715C18.3958 23.3653 18 24.9408 18 26C18 26.5523 17.5523 27 17 27C16.4477 27 16 26.5523 16 26C16 24.8369 16.3286 23.3585 16.9472 22C17.0949 21.6757 17.259 21.3582 17.4392 21.0535C17.4434 21.0464 17.4476 21.0393 17.4519 21.0322C17.6623 20.6785 17.903 20.329 18.1741 20H16C15.909 20 15.8188 20.0054 15.7292 20.0161C14.8476 20.1211 14.0384 20.7371 13.3662 21.7443C13.3508 21.7674 13.3354 21.7908 13.3201 21.8143C13.2661 21.8975 13.213 21.9832 13.1608 22.0715C12.3958 23.3653 12 24.9408 12 26C12 26.5523 11.5523 27 11 27C10.4477 27 10 26.5523 10 26C10 25.2848 10.1243 24.4503 10.3638 23.5978C10.6068 22.7331 10.9684 21.8498 11.4392 21.0535C11.4465 21.0412 11.4538 21.029 11.4611 21.0167C11.5143 20.9277 11.5694 20.839 11.6264 20.7509C11.6327 20.7412 11.639 20.7314 11.6454 20.7216C11.4903 20.7789 11.3367 20.8394 11.1848 20.9031C10.2784 21.2826 9.42985 21.7729 8.6562 22.3571C5.82793 24.4927 4 27.8829 4 31.7C4 35.1794 6.82061 38 10.3 38H26.7C30.1794 38 33 35.1794 33 31.7C33 27.0442 30.2806 23.0236 26.3435 21.1398C26.0934 21.3436 25.856 21.5912 25.6345 21.8738ZM26.81 23.7154C26.7285 23.8619 26.6483 24.0216 26.5708 24.1945C26.1685 25.0925 26 25.9902 26 26.5C26 28.1569 24.6569 29.5 23 29.5C21.3431 29.5 20 28.1569 20 26.5C20 26.0679 20.0343 25.6148 20.0999 25.1514C20.033 25.4774 20 25.7702 20 26C20 27.6569 18.6569 29 17 29C15.3431 29 14 27.6569 14 26C14 27.6569 12.6569 29 11 29C9.34315 29 8 27.6569 8 26C8 25.9328 8.00083 25.8649 8.0025 25.7965C6.7462 27.4324 6 29.4798 6 31.7C6 34.0748 7.92518 36 10.3 36H26.7C29.0748 36 31 34.0748 31 31.7C31 28.3918 29.3439 25.4674 26.81 23.7154Z" fill="black"/>
</svg>

<svg
  xmlns="http://www.w3.org/2000/svg"
  width="24"
  height="24"
  viewBox="0 0 24 24"
  fill="none"
  stroke="currentColor"
  stroke-width="2"
  stroke-linecap="round"
  stroke-linejoin="round"
>
  <path
    fill-rule="evenodd"
    d="M35 10a1 1 0 0 1 1 1v14a1 1 0 1 1-2 0V11a1 1 0 0 1 1-1"
    clip-rule="evenodd"
  />
  <path
    fill-rule="evenodd"
    d="M43 10a1 1 0 0 1 1 1v14a1 1 0 1 1-2 0V11a1 1 0 0 1 1-1"
    clip-rule="evenodd"
  />
  <path
    fill-rule="evenodd"
    d="M39 10a1 1 0 0 1 1 1v14a1 1 0 1 1-2 0V11a1 1 0 0 1 1-1"
    clip-rule="evenodd"
  />
  <path
    fill-rule="evenodd"
    d="M39 22a1 1 0 0 1 1 1v14a1 1 0 1 1-2 0V23a1 1 0 0 1 1-1"
    clip-rule="evenodd"
  />
  <path
    fill-rule="evenodd"
    d="M34 11v5.528a4 4 0 0 0 2.211 3.578L40 22v-5.528a4 4 0 0 0-2.211-3.578zm2 3.236v2.292a2 2 0 0 0 1.106 1.789l.894.447v-2.292a2 2 0 0 0-1.106-1.789z"
    clip-rule="evenodd"
  />
  <path
    fill-rule="evenodd"
    d="M34 17v5.528a4 4 0 0 0 2.211 3.578L40 28v-5.528a4 4 0 0 0-2.211-3.578zm2 3.236v2.292a2 2 0 0 0 1.106 1.789l.894.447v-2.292a2 2 0 0 0-1.106-1.789z"
    clip-rule="evenodd"
  />
  <path
    fill-rule="evenodd"
    d="M34 23v5.528a4 4 0 0 0 2.211 3.578L40 34v-5.528a4 4 0 0 0-2.211-3.578zm2 3.236v2.292a2 2 0 0 0 1.106 1.789l.894.447v-2.292a2 2 0 0 0-1.106-1.789z"
    clip-rule="evenodd"
  />
  <path
    fill-rule="evenodd"
    d="M44 11v5.528a4 4 0 0 1-2.211 3.578L38 22v-5.528a4 4 0 0 1 2.211-3.578zm-2 3.236v2.292a2 2 0 0 1-1.106 1.789l-.894.447v-2.292a2 2 0 0 1 1.106-1.789z"
    clip-rule="evenodd"
  />
  <path
    fill-rule="evenodd"
    d="M44 17v5.528a4 4 0 0 1-2.211 3.578L38 28v-5.528a4 4 0 0 1 2.211-3.578zm-2 3.236v2.292a2 2 0 0 1-1.106 1.789l-.894.447v-2.292a2 2 0 0 1 1.106-1.789z"
    clip-rule="evenodd"
  />
  <path
    fill-rule="evenodd"
    d="M44 23v5.528a4 4 0 0 1-2.211 3.578L38 34v-5.528a4 4 0 0 1 2.211-3.578zm-2 3.236v2.292a2 2 0 0 1-1.106 1.789l-.894.447v-2.292a2 2 0 0 1 1.106-1.789z"
    clip-rule="evenodd"
  />
  <path
    fill-rule="evenodd"
    d="M24.273 20.381a11.7 11.7 0 0 0-2.486-.371c-.996.093-1.902.837-2.626 2.061C18.396 23.366 18 24.942 18 26a1 1 0 1 1-2 0c0-1.44.504-3.365 1.44-4.946.213-.361.457-.718.734-1.054H16c-1.08 0-2.064.76-2.84 2.072C12.397 23.365 12 24.94 12 26a1 1 0 1 1-2 0c0-1.44.504-3.365 1.44-4.946q.098-.168.205-.332C7.182 22.37 4 26.664 4 31.7a6.3 6.3 0 0 0 6.3 6.3h16.4a6.3 6.3 0 0 0 6.3-6.3c0-4.656-2.72-8.676-6.657-10.56-.63.514-1.18 1.306-1.597 2.237-.5 1.113-.746 2.289-.746 3.123a1 1 0 1 1-2 0c0-1.16.325-2.613.92-3.941.34-.758.788-1.521 1.353-2.178"
    clip-rule="evenodd"
  />
  <path
    fill-rule="evenodd"
    d="M25.635 21.874a7.2 7.2 0 0 0-.913 1.555C24.24 24.527 24 25.679 24 26.5a1 1 0 1 1-2 0c0-1.16.325-2.613.92-3.941q.088-.195.186-.392a9 9 0 0 1 1.167-1.786 11.7 11.7 0 0 0-2.486-.371c-.716.067-1.385.47-1.973 1.145l-.098.116a6.4 6.4 0 0 0-.551.794l-.004.006C18.396 23.366 18 24.942 18 26a1 1 0 1 1-2 0c0-1.163.329-2.642.947-4a10 10 0 0 1 .505-.968A8 8 0 0 1 18.174 20H16a2 2 0 0 0-.27.016c-.882.105-1.692.721-2.364 1.728a8 8 0 0 0-.205.328C12.396 23.365 12 24.94 12 26a1 1 0 1 1-2 0c0-.715.124-1.55.364-2.402a10.8 10.8 0 0 1 1.075-2.544l.022-.037q.08-.135.165-.266l.02-.03q-.234.086-.461.182c-.907.38-1.755.87-2.529 1.454A11.68 11.68 0 0 0 4 31.7a6.3 6.3 0 0 0 6.3 6.3h16.4a6.3 6.3 0 0 0 6.3-6.3c0-4.656-2.72-8.676-6.657-10.56a4.6 4.6 0 0 0-.709.734m1.175 1.841a6 6 0 0 0-.24.48c-.401.898-.57 1.795-.57 2.305a3 3 0 1 1-6 0c0-.432.034-.885.1-1.349-.067.326-.1.62-.1.849a3 3 0 1 1-6 0 3 3 0 1 1-6 0q0-.1.002-.203A9.66 9.66 0 0 0 6 31.7a4.3 4.3 0 0 0 4.3 4.3h16.4a4.3 4.3 0 0 0 4.3-4.3 9.69 9.69 0 0 0-4.19-7.985"
    clip-rule="evenodd"
  />
</svg>
